X:8786
T:l'Aurillacoise
R:Valse
C:trad.
A:Cantal
O:France
Z:S. Piron
M:3/4
L:1/4
Q:1/4=190
K:C
Gce|g>fg|agf|e>de|gfe|d>c d/2e/2|feB|dcA|
Gce|g>fg|agf|e>de|gfe|d>B d/2e/2|fdB|c3-|c2 z:|
|:c B/2c/2 d/2e/2|dce|d/2e/2 f/2e/2 d/2f/2|ecG|
c B/2c/2 d/2e/2|dce|d/2e/2 f/2d/2 B/2d/2|1c2G:|2c3||
